Newaita-dark/apps/48/kiriki.svg

<svg height="48pt" viewBox="0 0 48 48" width="48pt" xmlns="http://www.w3.org/2000/svg" xmlns:xlink="http://www.w3.org/1999/xlink"><linearGradient id="a" gradientUnits="userSpaceOnUse" x1="23.81478" x2="23.81478" y1="42.0509045" y2="44.03547050005"><stop offset="0" stop-opacity=".27451"/><stop offset="1" stop-opacity="0"/></linearGradient><linearGradient id="b"><stop offset="0" stop-opacity=".313725"/><stop offset=".222222" stop-opacity=".27451"/><stop offset="1" stop-opacity="0"/></linearGradient><radialGradient id="c" cx="450.908936" cy="189.579361" gradientTransform="matrix(.00000026 -.117199 -.210958 -.00000015 78.195972 95.392999)" gradientUnits="userSpaceOnUse" r="21.166656" xlink:href="#b"/><radialGradient id="d" cx="450.908936" cy="189.579361" gradientTransform="matrix(-.00000026 .117199 .210958 .00000015 -30.56642 -11.291218)" gradientUnits="userSpaceOnUse" r="21.166656" xlink:href="#b"/><radialGradient id="e" cx="450.908936" cy="189.579361" gradientTransform="matrix(-.00000026 -.117199 .210958 -.00000015 -30.56642 95.392999)" gradientUnits="userSpaceOnUse" r="21.166656" xlink:href="#b"/><radialGradient id="f" cx="450.908936" cy="189.579361" gradientTransform="matrix(.00000026 .117199 -.210958 .00000015 78.195969 -11.291219)" gradientUnits="userSpaceOnUse" r="21.166656" xlink:href="#b"/><linearGradient id="g" gradientUnits="userSpaceOnUse" x1="15.87652349995" x2="15.87652349995" y1="42.0509015" y2="4.3441580001"><stop offset="0" stop-color="#ef5350"/><stop offset="1" stop-color="#e57373"/></linearGradient><linearGradient id="h"><stop offset="0" stop-color="#bdbdbd"/><stop offset="1" stop-color="#eee"/></linearGradient><linearGradient id="i" gradientUnits="userSpaceOnUse" x1="23.814786" x2="23.814786" xlink:href="#h" y1="19.22839821875" y2="27.16666025"/><linearGradient id="j" gradientUnits="userSpaceOnUse" x1="33.241466" x2="33.241466" xlink:href="#h" y1="28.40703221875" y2="36.34529425"/><linearGradient id="k" gradientUnits="userSpaceOnUse" x1="14.40545" x2="14.40545" xlink:href="#h" y1="9.55367021875" y2="17.49193225"/><path d="m8.929688 41.902344h29.769531v2.207031h-29.769531zm0 0" fill="url(#a)"/><path d="m38.699219 42.050781h3.96875v-1.984375h-3.96875zm0 0" fill="url(#c)"/><path d="m8.929688 42.050781h-3.96875v1.984375h3.96875zm0 0" fill="url(#d)"/><path d="m8.929688 42.050781h-3.96875v-1.984375h3.96875zm0 0" fill="url(#e)"/><path d="m38.699219 42.050781h3.96875v1.984375h-3.96875zm0 0" fill="url(#f)"/><path d="m6.945312 4.34375h33.738282c1.097656 0 1.984375.890625 1.984375 1.984375v33.738281c0 1.097656-.886719 1.984375-1.984375 1.984375h-33.738282c-1.09375 0-1.984374-.886719-1.984374-1.984375v-33.738281c0-1.09375.890624-1.984375 1.984374-1.984375zm0 0" fill="url(#g)"/><path d="m6.945312 4.34375c-1.097656 0-1.984374.886719-1.984374 1.984375v10.914063c5.265624 1.214843 11.78125 1.929687 18.855468 1.929687 7.070313 0 13.585938-.714844 18.851563-1.929687v-10.914063c0-1.097656-.886719-1.984375-1.984375-1.984375zm0 0" fill="#fff" fill-opacity=".078431"/><path d="m4.960938 7.007812v-.726562c0-1.097656.886718-1.984375 1.984374-1.984375h33.738282c1.097656 0 1.984375.886719 1.984375 1.984375v.726562c0-1.097656-.886719-1.984374-1.984375-1.984374h-33.738282c-1.097656 0-1.984374.886718-1.984374 1.984374zm0 0" fill="#fff" fill-opacity=".392157"/><path d="m4.960938 39.339844v.726562c0 1.097656.886718 1.984375 1.984374 1.984375h33.738282c1.097656 0 1.984375-.886719 1.984375-1.984375v-.726562c0 1.101562-.886719 1.984375-1.984375 1.984375h-33.738282c-1.097656 0-1.984374-.882813-1.984374-1.984375zm0 0" fill-opacity=".235294"/><path d="m6.945312 4.203125c-1.175781 0-2.125.949219-2.125 2.125v33.738281c0 1.175782.949219 2.125 2.125 2.125h33.738282c1.175781 0 2.125-.949218 2.125-2.125v-33.738281c0-1.175781-.949219-2.125-2.125-2.125zm0 .28125h33.738282c1.023437 0 1.84375.820313 1.84375 1.84375v33.738281c0 1.023438-.820313 1.84375-1.84375 1.84375h-33.738282c-1.023437 0-1.84375-.820312-1.84375-1.84375v-33.738281c0-1.023437.820313-1.84375 1.84375-1.84375zm0 0" fill="#212121"/><path d="m23.816406 19.226562c2.191406 0 3.96875 1.777344 3.96875 3.972657 0 2.191406-1.777344 3.96875-3.96875 3.96875-2.195312 0-3.972656-1.777344-3.972656-3.96875 0-2.195313 1.777344-3.972657 3.972656-3.972657zm0 0" fill="url(#i)"/><path d="m23.816406 19.226562c-2.199218 0-3.972656 1.773438-3.972656 3.972657 0 .125.007812.246093.019531.371093.1875-2.023437 1.878907-3.597656 3.953125-3.597656 2.070313 0 3.761719 1.574219 3.949219 3.597656.011719-.125.019531-.246093.019531-.371093 0-2.199219-1.773437-3.972657-3.96875-3.972657zm0 0" fill-opacity=".235294"/><path d="m23.816406 27.910156c-2.199218 0-3.972656-1.769531-3.972656-3.96875 0-.125.007812-.25.019531-.371094.1875 2.023438 1.878907 3.597657 3.953125 3.597657 2.070313 0 3.761719-1.574219 3.949219-3.597657.011719.121094.019531.246094.019531.371094 0 2.199219-1.773437 3.96875-3.96875 3.96875zm0 0" fill="#fff" fill-opacity=".392157"/><path d="m254.017409-9.936249c23.372768 0 42.329291 18.956523 42.329291 42.370953 0 23.372769-18.956523 42.329292-42.329291 42.329292-23.41443 0-42.370954-18.956523-42.370954-42.329292 0-23.41443 18.956524-42.370953 42.370954-42.370953zm0 0" fill="none" stroke="#212121" stroke-linecap="round" stroke-linejoin="round" stroke-width="3" transform="matrix(.093759 0 0 .093759 0 20.158175)"/><path d="m33.242188 28.40625c2.191406 0 3.96875 1.777344 3.96875 3.96875s-1.777344 3.96875-3.96875 3.96875c-2.191407 0-3.96875-1.777344-3.96875-3.96875s1.777343-3.96875 3.96875-3.96875zm0 0" fill="url(#j)"/><path d="m33.242188 28.40625c-2.199219 0-3.96875 1.769531-3.96875 3.96875 0 .125.003906.25.015624.375.1875-2.023438 1.878907-3.597656 3.953126-3.597656 2.074218 0 3.765624 1.574218 3.949218 3.597656.011719-.125.019532-.25.019532-.375 0-2.199219-1.769532-3.96875-3.96875-3.96875zm0 0" fill-opacity=".235294"/><path d="m33.242188 37.089844c-2.199219 0-3.96875-1.769532-3.96875-3.96875 0-.125.003906-.25.015624-.371094.1875 2.019531 1.878907 3.59375 3.953126 3.59375 2.074218 0 3.765624-1.574219 3.949218-3.59375.011719.121094.019532.246094.019532.371094 0 2.199218-1.769532 3.96875-3.96875 3.96875zm0 0" fill="#fff" fill-opacity=".392157"/><path d="m254.007819-9.925012c23.372768 0 42.329291 18.956523 42.329291 42.329291s-18.956523 42.329291-42.329291 42.329291-42.329291-18.956523-42.329291-42.329291 18.956523-42.329291 42.329291-42.329291zm0 0" fill="none" stroke="#212121" stroke-linecap="round" stroke-linejoin="round" stroke-width="3" transform="matrix(.093759 0 0 .093759 9.42668 29.336809)"/><path d="m14.40625 9.554688c2.191406 0 3.96875 1.777343 3.96875 3.96875 0 2.191406-1.777344 3.96875-3.96875 3.96875s-3.96875-1.777344-3.96875-3.96875c0-2.191407 1.777344-3.96875 3.96875-3.96875zm0 0" fill="url(#k)"/><path d="m14.40625 9.554688c-2.199219 0-3.96875 1.769531-3.96875 3.96875 0 .125.003906.25.015625.371093.1875-2.023437 1.878906-3.597656 3.953125-3.597656s3.765625 1.574219 3.949219 3.597656c.011719-.121093.019531-.246093.019531-.371093 0-2.199219-1.769531-3.96875-3.96875-3.96875zm0 0" fill-opacity=".235294"/><path d="m14.40625 18.234375c-2.199219 0-3.96875-1.769531-3.96875-3.96875 0-.125.003906-.25.015625-.371094.1875 2.023438 1.878906 3.597657 3.953125 3.597657s3.765625-1.574219 3.949219-3.597657c.011719.121094.019531.246094.019531.371094 0 2.199219-1.769531 3.96875-3.96875 3.96875zm0 0" fill="#fff" fill-opacity=".392157"/><path d="m254.00866-9.905817c23.372768 0 42.329291 18.956523 42.329291 42.329291s-18.956523 42.329291-42.329291 42.329291-42.329291-18.956523-42.329291-42.329291 18.956523-42.329291 42.329291-42.329291zm0 0" fill="none" stroke="#212121" stroke-linecap="round" stroke-linejoin="round" stroke-width="3" transform="matrix(.093759 0 0 .093759 -9.409336 10.483447)"/></svg>

<?xml version="1.0" encoding="UTF-8"?>
<svg xmlns="http://www.w3.org/2000/svg" xmlns:xlink="http://www.w3.org/1999/xlink" width="48pt" height="48pt" viewBox="0 0 48 48" version="1.1">
<defs>
<linearGradient id="linear0" gradientUnits="userSpaceOnUse" x1="254" y1="233.5" x2="254" y2="254.666672" gradientTransform="matrix(0.093759,0,0,0.093759,-0.00000572259,20.158178)">
<stop offset="0" style="stop-color:rgb(0%,0%,0%);stop-opacity:0.27451;"/>
<stop offset="1" style="stop-color:rgb(0%,0%,0%);stop-opacity:0;"/>
</linearGradient>
<radialGradient id="radial0" gradientUnits="userSpaceOnUse" cx="450.908936" cy="189.579361" fx="450.908936" fy="189.579361" r="21.166656" gradientTransform="matrix(0.000000261256,-0.117199,-0.210958,-0.000000152308,78.195972,95.392999)">
<stop offset="0" style="stop-color:rgb(0%,0%,0%);stop-opacity:0.313725;"/>
<stop offset="0.222222" style="stop-color:rgb(0%,0%,0%);stop-opacity:0.27451;"/>
<stop offset="1" style="stop-color:rgb(0%,0%,0%);stop-opacity:0;"/>
</radialGradient>
<radialGradient id="radial1" gradientUnits="userSpaceOnUse" cx="450.908936" cy="189.579361" fx="450.908936" fy="189.579361" r="21.166656" gradientTransform="matrix(-0.000000261256,0.117199,0.210958,0.000000152308,-30.56642,-11.291218)">
<stop offset="0" style="stop-color:rgb(0%,0%,0%);stop-opacity:0.313725;"/>
<stop offset="0.222222" style="stop-color:rgb(0%,0%,0%);stop-opacity:0.27451;"/>
<stop offset="1" style="stop-color:rgb(0%,0%,0%);stop-opacity:0;"/>
</radialGradient>
<radialGradient id="radial2" gradientUnits="userSpaceOnUse" cx="450.908936" cy="189.579361" fx="450.908936" fy="189.579361" r="21.166656" gradientTransform="matrix(-0.000000261256,-0.117199,0.210958,-0.000000152308,-30.56642,95.392999)">
<stop offset="0" style="stop-color:rgb(0%,0%,0%);stop-opacity:0.313725;"/>
<stop offset="0.222222" style="stop-color:rgb(0%,0%,0%);stop-opacity:0.27451;"/>
<stop offset="1" style="stop-color:rgb(0%,0%,0%);stop-opacity:0;"/>
</radialGradient>
<radialGradient id="radial3" gradientUnits="userSpaceOnUse" cx="450.908936" cy="189.579361" fx="450.908936" fy="189.579361" r="21.166656" gradientTransform="matrix(0.000000261256,0.117199,-0.210958,0.000000152308,78.195969,-11.291219)">
<stop offset="0" style="stop-color:rgb(0%,0%,0%);stop-opacity:0.313725;"/>
<stop offset="0.222222" style="stop-color:rgb(0%,0%,0%);stop-opacity:0.27451;"/>
<stop offset="1" style="stop-color:rgb(0%,0%,0%);stop-opacity:0;"/>
</radialGradient>
<linearGradient id="linear1" gradientUnits="userSpaceOnUse" x1="169.333328" y1="233.5" x2="169.333328" y2="-168.666656" gradientTransform="matrix(0.093759,0,0,0.093759,0,20.158175)">
<stop offset="0" style="stop-color:rgb(93.72549%,32.54902%,31.372549%);stop-opacity:1;"/>
<stop offset="1" style="stop-color:rgb(89.803922%,45.098039%,45.098039%);stop-opacity:1;"/>
</linearGradient>
<linearGradient id="linear2" gradientUnits="userSpaceOnUse" x1="254" y1="-9.916667" x2="254" y2="74.75" gradientTransform="matrix(0.093759,0,0,0.093759,0,20.158175)">
<stop offset="0" style="stop-color:rgb(74.117647%,74.117647%,74.117647%);stop-opacity:1;"/>
<stop offset="1" style="stop-color:rgb(93.333333%,93.333333%,93.333333%);stop-opacity:1;"/>
</linearGradient>
<linearGradient id="linear3" gradientUnits="userSpaceOnUse" x1="254" y1="-9.916667" x2="254" y2="74.75" gradientTransform="matrix(0.093759,0,0,0.093759,9.42668,29.336809)">
<stop offset="0" style="stop-color:rgb(74.117647%,74.117647%,74.117647%);stop-opacity:1;"/>
<stop offset="1" style="stop-color:rgb(93.333333%,93.333333%,93.333333%);stop-opacity:1;"/>
</linearGradient>
<linearGradient id="linear4" gradientUnits="userSpaceOnUse" x1="254" y1="-9.916667" x2="254" y2="74.75" gradientTransform="matrix(0.093759,0,0,0.093759,-9.409336,10.483447)">
<stop offset="0" style="stop-color:rgb(74.117647%,74.117647%,74.117647%);stop-opacity:1;"/>
<stop offset="1" style="stop-color:rgb(93.333333%,93.333333%,93.333333%);stop-opacity:1;"/>
</linearGradient>
</defs>
<g id="surface1">
<path style=" stroke:none;fill-rule:nonzero;fill:url(#linear0);" d="M 8.929688 41.902344 L 38.699219 41.902344 L 38.699219 44.109375 L 8.929688 44.109375 Z M 8.929688 41.902344 "/>
<path style=" stroke:none;fill-rule:nonzero;fill:url(#radial0);" d="M 38.699219 42.050781 L 42.667969 42.050781 L 42.667969 40.066406 L 38.699219 40.066406 Z M 38.699219 42.050781 "/>
<path style=" stroke:none;fill-rule:nonzero;fill:url(#radial1);" d="M 8.929688 42.050781 L 4.960938 42.050781 L 4.960938 44.035156 L 8.929688 44.035156 Z M 8.929688 42.050781 "/>
<path style=" stroke:none;fill-rule:nonzero;fill:url(#radial2);" d="M 8.929688 42.050781 L 4.960938 42.050781 L 4.960938 40.066406 L 8.929688 40.066406 Z M 8.929688 42.050781 "/>
<path style=" stroke:none;fill-rule:nonzero;fill:url(#radial3);" d="M 38.699219 42.050781 L 42.667969 42.050781 L 42.667969 44.035156 L 38.699219 44.035156 Z M 38.699219 42.050781 "/>
<path style=" stroke:none;fill-rule:nonzero;fill:url(#linear1);" d="M 6.945312 4.34375 L 40.683594 4.34375 C 41.78125 4.34375 42.667969 5.234375 42.667969 6.328125 L 42.667969 40.066406 C 42.667969 41.164062 41.78125 42.050781 40.683594 42.050781 L 6.945312 42.050781 C 5.851562 42.050781 4.960938 41.164062 4.960938 40.066406 L 4.960938 6.328125 C 4.960938 5.234375 5.851562 4.34375 6.945312 4.34375 Z M 6.945312 4.34375 "/>
<path style=" stroke:none;fill-rule:nonzero;fill:rgb(100%,100%,100%);fill-opacity:0.0784314;" d="M 6.945312 4.34375 C 5.847656 4.34375 4.960938 5.230469 4.960938 6.328125 L 4.960938 17.242188 C 10.226562 18.457031 16.742188 19.171875 23.816406 19.171875 C 30.886719 19.171875 37.402344 18.457031 42.667969 17.242188 L 42.667969 6.328125 C 42.667969 5.230469 41.78125 4.34375 40.683594 4.34375 Z M 6.945312 4.34375 "/>
<path style=" stroke:none;fill-rule:nonzero;fill:rgb(100%,100%,100%);fill-opacity:0.392157;" d="M 4.960938 7.007812 L 4.960938 6.28125 C 4.960938 5.183594 5.847656 4.296875 6.945312 4.296875 L 40.683594 4.296875 C 41.78125 4.296875 42.667969 5.183594 42.667969 6.28125 L 42.667969 7.007812 C 42.667969 5.910156 41.78125 5.023438 40.683594 5.023438 L 6.945312 5.023438 C 5.847656 5.023438 4.960938 5.910156 4.960938 7.007812 Z M 4.960938 7.007812 "/>
<path style=" stroke:none;fill-rule:nonzero;fill:rgb(0%,0%,0%);fill-opacity:0.235294;" d="M 4.960938 39.339844 L 4.960938 40.066406 C 4.960938 41.164062 5.847656 42.050781 6.945312 42.050781 L 40.683594 42.050781 C 41.78125 42.050781 42.667969 41.164062 42.667969 40.066406 L 42.667969 39.339844 C 42.667969 40.441406 41.78125 41.324219 40.683594 41.324219 L 6.945312 41.324219 C 5.847656 41.324219 4.960938 40.441406 4.960938 39.339844 Z M 4.960938 39.339844 "/>
<path style=" stroke:none;fill-rule:nonzero;fill:rgb(12.941177%,12.941177%,12.941177%);fill-opacity:1;" d="M 6.945312 4.203125 C 5.769531 4.203125 4.820312 5.152344 4.820312 6.328125 L 4.820312 40.066406 C 4.820312 41.242188 5.769531 42.191406 6.945312 42.191406 L 40.683594 42.191406 C 41.859375 42.191406 42.808594 41.242188 42.808594 40.066406 L 42.808594 6.328125 C 42.808594 5.152344 41.859375 4.203125 40.683594 4.203125 Z M 6.945312 4.484375 L 40.683594 4.484375 C 41.707031 4.484375 42.527344 5.304688 42.527344 6.328125 L 42.527344 40.066406 C 42.527344 41.089844 41.707031 41.910156 40.683594 41.910156 L 6.945312 41.910156 C 5.921875 41.910156 5.101562 41.089844 5.101562 40.066406 L 5.101562 6.328125 C 5.101562 5.304688 5.921875 4.484375 6.945312 4.484375 Z M 6.945312 4.484375 "/>
<path style=" stroke:none;fill-rule:nonzero;fill:url(#linear2);" d="M 23.816406 19.226562 C 26.007812 19.226562 27.785156 21.003906 27.785156 23.199219 C 27.785156 25.390625 26.007812 27.167969 23.816406 27.167969 C 21.621094 27.167969 19.84375 25.390625 19.84375 23.199219 C 19.84375 21.003906 21.621094 19.226562 23.816406 19.226562 Z M 23.816406 19.226562 "/>
<path style=" stroke:none;fill-rule:nonzero;fill:rgb(0%,0%,0%);fill-opacity:0.235294;" d="M 23.816406 19.226562 C 21.617188 19.226562 19.84375 21 19.84375 23.199219 C 19.84375 23.324219 19.851562 23.445312 19.863281 23.570312 C 20.050781 21.546875 21.742188 19.972656 23.816406 19.972656 C 25.886719 19.972656 27.578125 21.546875 27.765625 23.570312 C 27.777344 23.445312 27.785156 23.324219 27.785156 23.199219 C 27.785156 21 26.011719 19.226562 23.816406 19.226562 Z M 23.816406 19.226562 "/>
<path style=" stroke:none;fill-rule:nonzero;fill:rgb(100%,100%,100%);fill-opacity:0.392157;" d="M 23.816406 27.910156 C 21.617188 27.910156 19.84375 26.140625 19.84375 23.941406 C 19.84375 23.816406 19.851562 23.691406 19.863281 23.570312 C 20.050781 25.59375 21.742188 27.167969 23.816406 27.167969 C 25.886719 27.167969 27.578125 25.59375 27.765625 23.570312 C 27.777344 23.691406 27.785156 23.816406 27.785156 23.941406 C 27.785156 26.140625 26.011719 27.910156 23.816406 27.910156 Z M 23.816406 27.910156 "/>
<path style="fill:none;stroke-width:3;stroke-linecap:round;stroke-linejoin:round;stroke:rgb(12.941177%,12.941177%,12.941177%);stroke-opacity:1;stroke-miterlimit:4;" d="M 254.017409 -9.936249 C 277.390177 -9.936249 296.3467 9.020274 296.3467 32.434704 C 296.3467 55.807473 277.390177 74.763996 254.017409 74.763996 C 230.602979 74.763996 211.646455 55.807473 211.646455 32.434704 C 211.646455 9.020274 230.602979 -9.936249 254.017409 -9.936249 Z M 254.017409 -9.936249 " transform="matrix(0.093759,0,0,0.093759,0,20.158175)"/>
<path style=" stroke:none;fill-rule:nonzero;fill:url(#linear3);" d="M 33.242188 28.40625 C 35.433594 28.40625 37.210938 30.183594 37.210938 32.375 C 37.210938 34.566406 35.433594 36.34375 33.242188 36.34375 C 31.050781 36.34375 29.273438 34.566406 29.273438 32.375 C 29.273438 30.183594 31.050781 28.40625 33.242188 28.40625 Z M 33.242188 28.40625 "/>
<path style=" stroke:none;fill-rule:nonzero;fill:rgb(0%,0%,0%);fill-opacity:0.235294;" d="M 33.242188 28.40625 C 31.042969 28.40625 29.273438 30.175781 29.273438 32.375 C 29.273438 32.5 29.277344 32.625 29.289062 32.75 C 29.476562 30.726562 31.167969 29.152344 33.242188 29.152344 C 35.316406 29.152344 37.007812 30.726562 37.191406 32.75 C 37.203125 32.625 37.210938 32.5 37.210938 32.375 C 37.210938 30.175781 35.441406 28.40625 33.242188 28.40625 Z M 33.242188 28.40625 "/>
<path style=" stroke:none;fill-rule:nonzero;fill:rgb(100%,100%,100%);fill-opacity:0.392157;" d="M 33.242188 37.089844 C 31.042969 37.089844 29.273438 35.320312 29.273438 33.121094 C 29.273438 32.996094 29.277344 32.871094 29.289062 32.75 C 29.476562 34.769531 31.167969 36.34375 33.242188 36.34375 C 35.316406 36.34375 37.007812 34.769531 37.191406 32.75 C 37.203125 32.871094 37.210938 32.996094 37.210938 33.121094 C 37.210938 35.320312 35.441406 37.089844 33.242188 37.089844 Z M 33.242188 37.089844 "/>
<path style="fill:none;stroke-width:3;stroke-linecap:round;stroke-linejoin:round;stroke:rgb(12.941177%,12.941177%,12.941177%);stroke-opacity:1;stroke-miterlimit:4;" d="M 254.007819 -9.925012 C 277.380587 -9.925012 296.33711 9.031511 296.33711 32.404279 C 296.33711 55.777047 277.380587 74.73357 254.007819 74.73357 C 230.635051 74.73357 211.678528 55.777047 211.678528 32.404279 C 211.678528 9.031511 230.635051 -9.925012 254.007819 -9.925012 Z M 254.007819 -9.925012 " transform="matrix(0.093759,0,0,0.093759,9.42668,29.336809)"/>
<path style=" stroke:none;fill-rule:nonzero;fill:url(#linear4);" d="M 14.40625 9.554688 C 16.597656 9.554688 18.375 11.332031 18.375 13.523438 C 18.375 15.714844 16.597656 17.492188 14.40625 17.492188 C 12.214844 17.492188 10.4375 15.714844 10.4375 13.523438 C 10.4375 11.332031 12.214844 9.554688 14.40625 9.554688 Z M 14.40625 9.554688 "/>
<path style=" stroke:none;fill-rule:nonzero;fill:rgb(0%,0%,0%);fill-opacity:0.235294;" d="M 14.40625 9.554688 C 12.207031 9.554688 10.4375 11.324219 10.4375 13.523438 C 10.4375 13.648438 10.441406 13.773438 10.453125 13.894531 C 10.640625 11.871094 12.332031 10.296875 14.40625 10.296875 C 16.480469 10.296875 18.171875 11.871094 18.355469 13.894531 C 18.367188 13.773438 18.375 13.648438 18.375 13.523438 C 18.375 11.324219 16.605469 9.554688 14.40625 9.554688 Z M 14.40625 9.554688 "/>
<path style=" stroke:none;fill-rule:nonzero;fill:rgb(100%,100%,100%);fill-opacity:0.392157;" d="M 14.40625 18.234375 C 12.207031 18.234375 10.4375 16.464844 10.4375 14.265625 C 10.4375 14.140625 10.441406 14.015625 10.453125 13.894531 C 10.640625 15.917969 12.332031 17.492188 14.40625 17.492188 C 16.480469 17.492188 18.171875 15.917969 18.355469 13.894531 C 18.367188 14.015625 18.375 14.140625 18.375 14.265625 C 18.375 16.464844 16.605469 18.234375 14.40625 18.234375 Z M 14.40625 18.234375 "/>
<path style="fill:none;stroke-width:3;stroke-linecap:round;stroke-linejoin:round;stroke:rgb(12.941177%,12.941177%,12.941177%);stroke-opacity:1;stroke-miterlimit:4;" d="M 254.00866 -9.905817 C 277.381428 -9.905817 296.337951 9.050706 296.337951 32.423474 C 296.337951 55.796242 277.381428 74.752765 254.00866 74.752765 C 230.635892 74.752765 211.679369 55.796242 211.679369 32.423474 C 211.679369 9.050706 230.635892 -9.905817 254.00866 -9.905817 Z M 254.00866 -9.905817 " transform="matrix(0.093759,0,0,0.093759,-9.409336,10.483447)"/>
</g>
</svg>
